assets/svg/walletallnetwork.svg

<svg width="36" height="36" viewBox="0 0 36 36" fill="none" xmlns="http://www.w3.org/2000/svg">
<rect width="36" height="36" rx="10" fill="#0166FF"/>
<path d="M9 12.7895C9 11.0031 9 10.1099 9.55496 9.55496C10.1099 9 11.0031 9 12.7895 9C14.5758 9 15.469 9 16.024 9.55496C16.5789 10.1099 16.5789 11.0031 16.5789 12.7895C16.5789 14.5758 16.5789 15.469 16.024 16.024C15.469 16.5789 14.5758 16.5789 12.7895 16.5789C11.0031 16.5789 10.1099 16.5789 9.55496 16.024C9 15.469 9 14.5758 9 12.7895Z" fill="white"/>
<path d="M9 23.2105C9 21.4242 9 20.531 9.55496 19.976C10.1099 19.4211 11.0031 19.4211 12.7895 19.4211C14.5758 19.4211 15.469 19.4211 16.024 19.976C16.5789 20.531 16.5789 21.4242 16.5789 23.2105C16.5789 24.9969 16.5789 25.8901 16.024 26.445C15.469 27 14.5758 27 12.7895 27C11.0031 27 10.1099 27 9.55496 26.445C9 25.8901 9 24.9969 9 23.2105Z" fill="white"/>
<path d="M19.4219 23.2113C19.4219 21.425 19.4219 20.5318 19.9768 19.9768C20.5318 19.4219 21.425 19.4219 23.2113 19.4219C24.9977 19.4219 25.8909 19.4219 26.4459 19.9768C27.0008 20.5318 27.0008 21.425 27.0008 23.2113C27.0008 24.9977 27.0008 25.8909 26.4459 26.4459C25.8909 27.0008 24.9977 27.0008 23.2113 27.0008C21.425 27.0008 20.5318 27.0008 19.9768 26.4459C19.4219 25.8909 19.4219 24.9977 19.4219 23.2113Z" fill="white"/>
<path d="M27.0019 12.7902C27.0019 14.8834 25.305 16.5802 23.2119 16.5802C21.1187 16.5802 19.4219 14.8834 19.4219 12.7902C19.4219 10.6971 21.1187 9.00024 23.2119 9.00024C25.305 9.00024 27.0019 10.6971 27.0019 12.7902Z" fill="white"/>
</svg>

<svg xmlns="http://www.w3.org/2000/svg" width="36" height="36" fill="none"><rect width="36" height="36" fill="#0166FF" rx="10"/><path fill="#fff" d="M9 12.79c0-1.787 0-2.68.555-3.235S11.003 9 12.79 9s2.679 0 3.234.555.555 1.448.555 3.235 0 2.679-.555 3.234-1.448.555-3.235.555-2.68 0-3.234-.555C9 15.469 9 14.576 9 12.789M9 23.21c0-1.786 0-2.679.555-3.234s1.448-.555 3.235-.555 2.679 0 3.234.555.555 1.448.555 3.235 0 2.68-.555 3.234c-.555.555-1.448.555-3.235.555s-2.68 0-3.234-.555C9 25.89 9 24.997 9 23.21M19.422 23.211c0-1.786 0-2.68.555-3.234.555-.555 1.448-.555 3.234-.555s2.68 0 3.235.555S27 21.425 27 23.21s0 2.68-.555 3.235S24.998 27 23.21 27s-2.68 0-3.234-.555c-.555-.555-.555-1.448-.555-3.235M27.002 12.79a3.79 3.79 0 1 1-7.58 0 3.79 3.79 0 0 1 7.58 0"/></svg>
